X:1
T:My Favorite Things
C:Richard Rodgers
L:1/4
M:3/4
I:linebreak $
K:G
"Em" E B B |"F#m" F E E |"Em" B, E E |"F#m" F E2 |"C" E B B |"C6" F E E |"C" B, E E |"C6" F E2 |$
"Am" E B A |"D7" E F D |"G" D A G |"C" C3 |"G" B, C D |"C" E F G |"F#ø" A B A |"B7" ^D3 ||$
[K:E]"E" E B B |"F#m" F E E |"E" B, E E |"F#m" F E2 |"A" E B B |"A6" F E E |"A" B, E E |
"A6" F E2 ||$[K:G]"Am" E B A |"D7" E F D |"G" D A G |"C" C3 |"G" B, C D |"C" E F G |"F#ø" A B A |
"B7" c3 |$"Em" z B B |"Dbø" B2 E |"F#ø" z A A |"B7" A2 ^D |"Em" z G G |"Em/D" G2 B, |"C" E3 |
"C6" z E |$"Am" E F E |"C" F E F |"A7" G A G | A2 G |"G" B c B |"C" c3 |"Am" z3 |"D7" B3 |$
"G6" G3 |"C" z3 |"G6" z3 |"C" z3 |"G" z3 |"C" z3 ||1"F#ø" z3 |"B7" z3 :|2"G" z3 | z3 |]

